X:2185
T:Gubben och Gumman
S:Polska från Närke (Hamburska) efter Pelle Molin
S:Efter David Bastviken
Z:[[http://www.bluerose.karenlmyers.org/IncipitsPolskaNarke1.html|Karen Myers (#2185)]]
Z:Upptecknad 8/1996
M:3/4
L:1/8
R:Polska
O:Närke
K:G
{D}G2 uBuB d>G | F2 uAuA c>A | G2 (Bd) c>A | F2 D4 :|
|: e2 (cB) c>e | e2 (dc) B>B | c2 (A>G) FA | G2 (Bd) (g2 |
{ag}e2) (cB) c>e | e2 (dc) B>B | c2 (A>G) FA | G2 G4 :|
